public/logos/18_eu/5.svg

<svg xmlns="http://www.w3.org/2000/svg" viewBox="0 0 38 38"  fill-rule="nonzero" stroke-linejoin="round" stroke-miterlimit="2" xmlns:v="https://vecta.io/nano"><path d="M36.72 18.72c0-9.875-8.125-18-18-18s-18 8.125-18 18 8.125 18 18 18 18-8.125 18-18" fill="#202020"/><path d="M12.27 24.36v-.12l1-.3c.528 1.131 1.32 2.119 2.31 2.88a4.36 4.36 0 0 0 2.58.75 3.56 3.56 0 0 0 2.76-1.17 4.62 4.62 0 0 0 1.05-3.18c.076-1.185-.341-2.351-1.15-3.22-.78-.81-1.878-1.238-3-1.17-.561-.006-1.12.086-1.65.27-.634.248-1.23.585-1.77 1l-.6-.33.27-6-.24-5.22.21-.18 6 .18 4.71-.18.18.33c-.111.543-.172 1.096-.18 1.65l.06 1.47-.21.18-5.34-.09-3.54.06-.15 4.86a7.38 7.38 0 0 1 1.89-.83c.653-.166 1.326-.247 2-.24 1.644-.111 3.269.412 4.54 1.46a5.54 5.54 0 0 1 1.59 4.17c.001 2.12-.906 4.142-2.49 5.55-1.693 1.566-3.935 2.407-6.24 2.34-.634.002-1.267-.058-1.89-.18-.588-.116-1.162-.297-1.71-.54a37.55 37.55 0 0 0-.99-4.2z" fill="#fff"/></svg>

<?xml version="1.0" encoding="UTF-8" standalone="no"?>
<!DOCTYPE svg PUBLIC "-//W3C//DTD SVG 1.1//EN" "http://www.w3.org/Graphics/SVG/1.1/DTD/svg11.dtd">
<svg width="100%" height="100%" viewBox="0 0 38 38" version="1.1" xmlns="http://www.w3.org/2000/svg" xmlns:xlink="http://www.w3.org/1999/xlink" xml:space="preserve" xmlns:serif="http://www.serif.com/" style="fill-rule:evenodd;clip-rule:evenodd;stroke-linejoin:round;stroke-miterlimit:2;">
    <path d="M36.72,18.72C36.72,8.845 28.595,0.72 18.72,0.72C8.845,0.72 0.72,8.845 0.72,18.72C0.72,28.595 8.845,36.72 18.72,36.72C28.595,36.72 36.72,28.595 36.72,18.72" style="fill:rgb(32,32,32);fill-rule:nonzero;"/>
    <path d="M12.27,24.36L12.27,24.24L13.27,23.94C13.798,25.071 14.59,26.059 15.58,26.82C16.339,27.335 17.243,27.598 18.16,27.57C19.207,27.605 20.217,27.177 20.92,26.4C21.655,25.509 22.03,24.374 21.97,23.22C22.046,22.035 21.629,20.869 20.82,20C20.04,19.19 18.942,18.762 17.82,18.83C17.259,18.824 16.7,18.916 16.17,19.1C15.536,19.348 14.94,19.685 14.4,20.1L13.8,19.77C13.98,17.31 14.07,15.33 14.07,13.77C14.07,11.82 13.98,10.08 13.83,8.55L14.04,8.37C16.2,8.49 18.21,8.55 20.04,8.55C21.87,8.55 23.37,8.49 24.75,8.37L24.93,8.7C24.819,9.243 24.758,9.796 24.75,10.35C24.75,10.62 24.75,11.1 24.81,11.82L24.6,12C22.8,11.94 21.03,11.91 19.26,11.91C18.06,11.91 16.89,11.91 15.72,11.97L15.57,16.83C16.158,16.466 16.794,16.187 17.46,16C18.113,15.834 18.786,15.753 19.46,15.76C21.104,15.649 22.729,16.172 24,17.22C25.091,18.325 25.668,19.839 25.59,21.39C25.591,23.51 24.684,25.532 23.1,26.94C21.407,28.506 19.165,29.347 16.86,29.28C16.226,29.282 15.593,29.222 14.97,29.1C14.382,28.984 13.808,28.803 13.26,28.56C13.011,27.142 12.68,25.74 12.27,24.36Z" style="fill:white;fill-rule:nonzero;"/>
</svg>
